X: 1
T: String Quartet in D Major opus 50 no 6 mvt 4
C: Franz Joseph Haydn
%%abc-version 2.0
%%abcx-abcm2ps-target-version 5.9.1 (29 Sep 2008)
%%abc-creator hum2abc beta
%%abcx-conversion-date 2021/02/14 14:38:09
%%abc-copyright Copyright (c) 1994, 2000 Center for Computer Assisted Research in the Humanities
%%abc-edited-by Frances Bennion
%%abcx-initial-encoding-date 1997/04/15
%%gracespace 0 6 6
%%humdrum-veritas 262695143
%%humdrum-veritas-data 2236532393
%%linebreak <none>
%%barnumbers 0
L: 1/8
M: 2/4
N: Derived from op50n6-04.krn
Q: "Finale: Allegro con spirito"
%%staves [1 2 3 4]
V: 1
V: 2
V: 3 clef=alto
V: 4 clef=bass
K: D
[V:1]z3 A/A/ [I:setbarnb1]|
[V:2]z3 z |
[V:3]z3 z |
[V:4]z3 z |
[V:1]A/A/A/A/ A/A/A/A/ |
[V:2]z4 |
[V:3]z3 A, |
[V:4]z3 D, |
[V:1]G2 FE |
[V:2]z3 C |
[V:3]A,A, A,G, |
[V:4]D,D, D,E, |
[V:1]Dd B^G |
[V:2]DF DB, |
[V:3]F,2 zD |
[V:4]F,B,, D,E, |
[V:1]AA, ze/e/ |
[V:2]C2 z2 |
[V:3]C2 z2 |
[V:4]A,,2 z2 |
[V:1]e/e/e/e/ e/e/e/e/ |
[V:2]z3 G |
[V:3]z3 E |
[V:4]z3 A, |
[V:1]d2 cB |
[V:2]GG GG |
[V:3]EE EE |
[V:4]A,A, A,B, |
[V:1]Aa gc |
[V:2]G3 G |
[V:3]E3 E |
[V:4]C3 A, |
[V:1]dD zD/D/ |
[V:2]F2 z2 |
[V:3]D2 z2 |
[V:4]D2 z2 |
[V:1]D/D/D/D/ D/D/D/D/ |
[V:2]z4 |
[V:3]z4 |
[V:4]z4 |
[V:1]G,B AD/D/ |
[V:2]zG Fz |
[V:3]zD Dz |
[V:4]zG,,/B,,/ D,z |
[V:1]D/D/D/D/ D/D/D/D/ |
[V:2]z4 |
[V:3]z4 |
[V:4]z4 |
[V:1]A,G FD/D/ |
[V:2]zE DD |
[V:3]zA, D,z |
[V:4]zC, D,z |
[V:1]D/D/D/D/ D/D/D/D/ |
[V:2]C=C B,^A, |
[V:3]zF, G,F, |
[V:4]zD,, E,,F,, |
[V:1]G,B AD/D/ |
[V:2]B,C Dz |
[V:3]G,E, F,D |
[V:4]G,,2 F,,D, |
[V:1]D/D/D/D/ D/D/D/D/ |
[V:2]zA, G,D |
[V:3]EF G^G |
[V:4]C,=C, B,,_B,, |
[V:1]A,G FD/C/ |
[V:2]CE Dz |
[V:3]AA, Dz |
[V:4]A,,C, D,z |
[V:1]D/A,/F/E/ F/D/A/G/ |
[V:2]Fz Fz |
[V:3]A,z A,z |
[V:4]D,z D,z |
[V:1]A/F/d/c/ d/A/f/e/ |
[V:2]Fz Fz |
[V:3]A,z A,z |
[V:4]D,z D,z |
[V:1]f/d/a/f/ d'/a/f/d/ |
[V:2]F2 zF |
[V:3]A,2 zD |
[V:4]D,2 zD,,/F,,/ |
[V:1]A/a/c'/a/ d'/a/f/d/ |
[V:2]Eg fF |
[V:3]Ce dD |
[V:4]A,,2 z2 |
[V:1]A/a/c'/a/ d'/a/f/d/ |
[V:2]Eg fF |
[V:3]Ce dD |
[V:4]A,,2 z2 |
[V:1]A2 ze/e/ |
[V:2]Ez3 |
[V:3]Cz3 |
[V:4]A,,2 z2 |
[V:1]e/e/e/e/ e/e/=f/e/ |
[V:2]z3 =c |
[V:3]z3 A |
[V:4]z4 |
[V:1]e/e/^d/e/ e/e/=d/e/ |
[V:2]B=c B^G |
[V:3]^GA GE |
[V:4]z4 |
[V:1]=c/e/B/e/ c/e/A/e/ |
[V:2]A^G AF |
[V:3]EE EE |
[V:4]z4 |
[V:1]^G/B/e/^g/ be/e/ |
[V:2]^G2 z2 |
[V:3]E2 z2 |
[V:4]z4 |
[V:1]e/e/e/e/ e/e/=f/e/ |
[V:2]z4 |
[V:3]z3 =C |
[V:4]z3 A, |
[V:1]e/e/^d/e/ e/e/=d/e/ |
[V:2]z3 B, |
[V:3]B,=C B,^G, |
[V:4]^G,A, G,E, |
[V:1]=c/e/B/e/ c/e/A/e/ |
[V:2]=CD C^D |
[V:3]A,^G, A,F, |
[V:4]E,E, E,E, |
[V:1]^G/B/e/^g/ b/g/a/f/ |
[V:2]E3 ^D |
[V:3]^G,B,2 =C/A,/ |
[V:4]E,4- |
[V:1]^g/e/g/a/ b/g/a/f/ |
[V:2]EE2 ^D |
[V:3]B,B,2 =C/A,/ |
[V:4]E,4- |
[V:1]^g/e/g/a/ b/g/a/f/ |
[V:2]EE2 ^D |
[V:3]B,B,2 =C/A,/ |
[V:4]E,4- |
[V:1]^g/e/a/e/ b/e/c'/e/ |
[V:2]E4 |
[V:3]B,A, ^G,F, |
[V:4]E,F, ^G,A, |
[V:1]d'/b/^g/e/ d/B/^G/E/ |
[V:2]^G,2 z2 |
[V:3]E,2 z2 |
[V:4]B,2 z2 |
[V:1]D/D/D/D/ D/D/D/D/ |
[V:2]d/B/^G/E/ DB, |
[V:3]E,2 ^G,G, |
[V:4]z2 D/B,/^G,/E,/ |
[V:1]D2 z^g/a/ |
[V:2]^G,2 zE |
[V:3]B,2 zC |
[V:4]E,,2 z2 |
[V:1]^g/a/b/a/ b/a/g/a/ |
[V:2]E4- |
[V:3]DC CC |
[V:4]z4 |
[V:1]^g/a/b/a/ b/a/g/a/ |
[V:2]E4- |
[V:3]DC CC |
[V:4]z4 |
[V:1]^g/a/b/a/ b/a/d'/c'/ |
[V:2]E4 |
[V:3]DC CC |
[V:4]z4 |
[V:1]b/a/f'/e'/ d'/c'/a'/^g'/ |
[V:2]Ez Ez |
[V:3]Cz Cz |
[V:4]A,,z A,,z |
[V:1]f'/e'/c'' c''c'' |
[V:2]EE EE |
[V:3]CC CC |
[V:4]A,,A,, A,,A,, |
[V:1]c''2 zC/A,/ |
[V:2]E2 z2 |
[V:3]C2 z2 |
[V:4]A,,2 zA,, |
[V:1]D/A,/E/A,/ F/A,/^G/A,/ |
[V:2]z4 |
[V:3]z4 |
[V:4]B,,C, D,B,, |
[V:1]AB cd |
[V:2]z^G/E/ A/E/B/E/ |
[V:3]z4 |
[V:4]C,2 z2 |
[V:1]ef ^ga |
[V:2]cA B=c |
[V:3]zD D^D |
[V:4]z4 |
[V:1]E4 |
[V:2]ce/c/ e/c/e/c/ |
[V:3]Ec/A/ c/A/c/A/ |
[V:4]E,E, E,E, |
[V:1]b4 |
[V:2]d2 ^G2 |
[V:3]^G2 D2 |
[V:4]E,,E,, E,,E,, |
[V:1]a2 zc' |
[V:2]A2 z2 |
[V:3]C2 z2 |
[V:4]A,,A, A,,z |
[V:1]c'2 b/a/^g/f/ |
[V:2]zA AA |
[V:3]zC CC |
[V:4]zF, F,F, |
[V:1]^e2 zc' |
[V:2]zB BB |
[V:3]z^G GG |
[V:4]zC, C,C, |
[V:1]c'2 b/a/^g/f/ |
[V:2]zA AA |
[V:3]zC CC |
[V:4]zF, F,F, |
[V:1]^e2 zc' |
[V:2]zB BB |
[V:3]z^G GG |
[V:4]zC, C,C, |
[V:1]c'2 b/a/^g/f/ |
[V:2]zA AA |
[V:3]zC CC |
[V:4]zF, F,F, |
[V:1]e3/f//e// dc |
[V:2]B3 A |
[V:3]E4 |
[V:4]^G,3 A, |
[V:1]B3/c//d// cB |
[V:2]F2 ED |
[V:3]F>B A^G |
[V:4]D,D, E,E, |
[V:1]A2 z2 |
[V:2]C2 zc |
[V:3]A2 z2 |
[V:4]A,,A, A,,z |
[V:1]z4 |
[V:2]c2 B/A/^G/F/ |
[V:3]zA, A,A, |
[V:4]zF, F,F, |
[V:1]zd'/c'/ c'z |
[V:2]^E2 zc |
[V:3]zB, B,B, |
[V:4]z^G, G,G, |
[V:1]z4 |
[V:2]c2 B/A/^G/F/ |
[V:3]zA, A,A, |
[V:4]zF, F,F, |
[V:1]zd'/c'/ c'c' |
[V:2]^E2 z2 |
[V:3]zB, B,B, |
[V:4]z^G, G,G, |
[V:1]c'2 b/a/^g/f/ |
[V:2]zA AA |
[V:3]zC CC |
[V:4]zF, F,F, |
[V:1]e3/f//e// dc |
[V:2]B3 A |
[V:3]E4 |
[V:4]^G,3 A, |
[V:1]B4- |
[V:2]A4- |
[V:3]F4 |
[V:4]D,D, D,D, |
[V:1]B4- |
[V:2]A4 |
[V:3]=F4- |
[V:4]D,D, D,D, |
[V:1]B4 |
[V:2]G4- |
[V:3]F4- |
[V:4]D,D, D,D, |
[V:1]B3 A/B/ |
[V:2]G4- |
[V:3]F4 |
[V:4]D,D, D,D, |
[V:1]=c4- |
[V:2]G4 |
[V:3]E4 |
[V:4]=C,C, C,C, |
[V:1]c4 |
[V:2]F4 |
[V:3]^D4 |
[V:4]A,,A,, A,,A,, |
[V:1][B2E2] [E2-d2] |
[V:2]E2 B2- |
[V:3]E4- |
[V:4]^G,,^G, G,G, |
[V:1][E2d2] c2 |
[V:2]B2 A2 |
[V:3]E4 |
[V:4]A,A, A,A, |
[V:1]B^e/f/ e/f/=e/d/ |
[V:2]F2 z2 |
[V:3]F2 z2 |
[V:4]D,2 z2 |
[V:1]c/B/^A/B/ A/B/d/B/ |
[V:2]F2 z2 |
[V:3]D2 z2 |
[V:4]D,2 z2 |
[V:1]A3 B |
[V:2]A3 ^G |
[V:3]C3 D |
[V:4]E,E, E,E, |
[V:1]Aa ^g=g |
[V:2]A/A/A/A/ A/A/A/A/ |
[V:3]CC DE |
[V:4]A,,A,, B,,C, |
[V:1]f=f e^d |
[V:2]A/A/A/A/ A/A/A/A/ |
[V:3]D2 z2 |
[V:4]D,D, E,F, |
[V:1]ed/B/ c/A/B/^G/ |
[V:2]A2 zD |
[V:3]z3 E |
[V:4]E,F, E,E, |
[V:1]AA Bc |
[V:2]CA ^G=G |
[V:3]A/A/A/A/ A/A/A/A/ |
[V:4]A,,2 z2 |
[V:1]d^d ef |
[V:2]F=F E^D |
[V:3]A/A/A/A/ A/A/A/A/ |
[V:4]z4 |
[V:1]ed/B/ c/A/B/^G/ |
[V:2]E2 zD |
[V:3]A2 zB,/D/ |
[V:4]zF, E,E, |
[V:1]A^G/A/ G/A/G/A/ |
[V:2]C2 z2 |
[V:3]C2 z2 |
[V:4]A,,2 z2 |
[V:1]c^B/c/ B/c/B/c/ |
[V:2]E^G/A/ G/A/G/A/ |
[V:3]C2 z2 |
[V:4]A,,2 z2 |
[V:1]e^d/e/ d/e/d/e/ |
[V:2]c^B/c/ B/c/B/c/ |
[V:3]C2 z2 |
[V:4]A,,2 z2 |
[V:1]g2 z2 |
[V:2]e2 z2 |
[V:3]C2 z2 |
[V:4]A,,2 z2 |
[V:1]z3 D/D/ |
[V:2]z4 |
[V:3]z4 |
[V:4]z3 D,, |
[V:1]D/D/D/D/ D/D/D/D/ |
[V:2]z4 |
[V:3]z4 |
[V:4]_E,,=E,, =F,,^F,, |
[V:1]=C2 B,A, |
[V:2]z4 |
[V:3]z4 |
[V:4]G,,3 A,, |
[V:1]G,G EC |
[V:2]z4 |
[V:3]z4 |
[V:4]B,,E,, G,,A,, |
[V:1]D2 zA/A/ |
[V:2]z4 |
[V:3]z3 D, |
[V:4]D,,D, D,,z |
[V:1]A/A/A/A/ A/A/A/A/ |
[V:2]z4 |
[V:3]_E,D, G,F, |
[V:4]z4 |
[V:1]G2 FE |
[V:2]z4 |
[V:3]=C4- |
[V:4]z4 |
[V:1]Dd =cF |
[V:2]z4 |
[V:3]CB, A,D |
[V:4]z4 |
[V:1]G2 zB/B/ |
[V:2]z3 B, |
[V:3]G,2 zB, |
[V:4]z3 B,, |
[V:1]B/B/B/B/ B/B/B/B/ |
[V:2]B,B, B,B, |
[V:3]=C^C D^D |
[V:4]=C,^C, D,^D, |
[V:1]A2 GF |
[V:2]A,2 G,^D |
[V:3]E3 =C |
[V:4]E,3 F, |
[V:1]E/G/B/e/ g/b/a/f/ |
[V:2]E3 ^D |
[V:3]B,3 =C |
[V:4]G,3 A, |
[V:1]e/B/e/f/ g/b/g/f/ |
[V:2]E3 ^D |
[V:3]B,3 =C |
[V:4]G,3 A, |
[V:1]e/b/g/f/ e/b/g/f/ |
[V:2]E^D ED |
[V:3]B,=C B,C |
[V:4]G,A, G,A, |
[V:1]e/b/g/f/ e/b/g/f/ |
[V:2]E^D ED |
[V:3]B,=C B,C |
[V:4]G,A, G,A, |
[V:1]e/f/g/f/ e/d/c/B/ |
[V:2]E3 G |
[V:3]B,3 E, |
[V:4]G,3 E, |
[V:1]F2 z^A/B/ |
[V:2]F2 zF |
[V:3]F,2 zD |
[V:4]F,2 z2 |
[V:1]^A/B/c/B/ c/B/A/B/ |
[V:2]GF FF |
[V:3]ED DD |
[V:4]z4 |
[V:1]^A/B/c/B/ c/B/^B/c/ |
[V:2]GF FF |
[V:3]ED DD |
[V:4]z4 |
[V:1]^B/c/d/c/ d/c/B/c/ |
[V:2]GF FF |
[V:3]^A,4- |
[V:4]z4 |
[V:1]=c/^c/d/c/ d/c/g/f/ |
[V:2]GF FF |
[V:3]A,4 |
[V:4]z3 ^A,, |
[V:1]g/f/g/f/ g/f/g/f/ |
[V:2]G/F/G/F/ G/F/G/F/ |
[V:3]DC CC |
[V:4]B,,^A,, A,,A,, |
[V:1]g/f/g/f/ g/f/g/f/ |
[V:2]G/F/G/F/ G/F/G/F/ |
[V:3]DC CC |
[V:4]B,,^A,, A,,A,, |
[V:1]d'b2 f- |
[V:2]FF FF |
[V:3]D/D/D/D/ D/D/D/D/ |
[V:4]B,,B,, B,,B,, |
[V:1]fd2 B |
[V:2]FF FF |
[V:3]D/D/D/D/ D/D/D/D/ |
[V:4]B,,B,, B,,B,, |
[V:1]e/e/g/e/ e/e/d/e/ |
[V:2]G4- |
[V:3][E4-C4] |
[V:4]^A,,4- |
[V:1]c/e/e/e/ c/e/B/e/ |
[V:2]G4- |
[V:3][E4C4-] |
[V:4]A,,4- |
[V:1]^A/e/c/e/ e/e/c/e/ |
[V:2]G2 z2 |
[V:3][E2C2] z2 |
[V:4]A,,2 z2 |
[V:1]^A/e/c/e/ e/e/c/e/ |
[V:2]G2 z2 |
[V:3][E2C2] z2 |
[V:4]^A,,2 z2 |
[V:1]d'b2 f- |
[V:2]FF FF |
[V:3]D/D/D/D/ D/D/D/D/ |
[V:4]B,,B,, B,,B,, |
[V:1]fd2 B |
[V:2]FF FF |
[V:3]D/D/D/D/ D/D/D/D/ |
[V:4]B,,B,, B,,B,, |
[V:1]A/A/=c/A/ A/A/G/A/ |
[V:2]=C4- |
[V:3][A,4-F,4] |
[V:4]^D,4- |
[V:1]F/A/A/A/ F/A/E/A/ |
[V:2]C4- |
[V:3][A,4F,4-] |
[V:4]D,4- |
[V:1]^D/A/F/A/ A/A/F/A/ |
[V:2]C2 z2 |
[V:3][A,2F,2] z2 |
[V:4]D,2 z2 |
[V:1]^D/A/F/A/ A/A/F/A/ |
[V:2]A2 z2 |
[V:3]F2 z2 |
[V:4]^D,2 z2 |
[V:1]G,/B,/E/G/ B/e/g/b/ |
[V:2]G4- |
[V:3]B,4- |
[V:4]E,4- |
[V:1]G,/B,/E/G/ B/e/g/b/ |
[V:2]G4 |
[V:3]B,4 |
[V:4]E,4 |
[V:1]G,/B,/D/=F/ G/B/d/e/ |
[V:2]=F4- |
[V:3][B,4-D4] |
[V:4]G,,4- |
[V:1]=f/d/d'/=c'/ b/a/g/f/ |
[V:2]F3 D |
[V:3][B,4D4] |
[V:4]G,,4 |
[V:1]e/e/e/e/ e/e/=f/e/ |
[V:2]E2 z=c |
[V:3]B,2 zA |
[V:4]^G,,2 z2 |
[V:1]e/e/^d/e/ e/e/=f/e/ |
[V:2]B3 =c |
[V:3]^G3 A |
[V:4]z4 |
[V:1]e/e/^d/e/ e/e/=f/e/ |
[V:2]B3 =c |
[V:3]^G3 A |
[V:4]z4 |
[V:1]e/e/^d/e/ e/e/=d/e/ |
[V:2]B=c B^G |
[V:3]^GA GE |
[V:4]z4 |
[V:1]c/A/c/e/ a/e/a/c'/ |
[V:2]G4- |
[V:3]E4- |
[V:4]A,,4- |
[V:1]e'/c'/a/g/ e/c/A/G/ |
[V:2]G3 E |
[V:3]E3 C |
[V:4]A,,4 |
[V:1]F/D/D/D/ D/D/_E/D/ |
[V:2]F2 z2 |
[V:3]D2 z_B, |
[V:4]D,2 zG, |
[V:1]D/D/C/D/ D/D/_E/D/ |
[V:2]z4 |
[V:3]A,3 _B, |
[V:4]F,3 G, |
[V:1]D/D/C/D/ D/D/_E/D/ |
[V:2]z4 |
[V:3]A,3 _B, |
[V:4]F,3 G, |
[V:1]D/D/C/D/ D/D/=C/D/ |
[V:2]z4 |
[V:3]A,_B, A,F, |
[V:4]F,G, F,D, |
[V:1]B,/G,/B,/D/ G/B/d/f/ |
[V:2]D4- |
[V:3]B,4- |
[V:4]G,4- |
[V:1]g/a/b/a/ g/f/e/d/ |
[V:2]D4 |
[V:3]B,4 |
[V:4]G,3 ^G, |
[V:1]c/A/a/A/ ^g/A/=g/A/ |
[V:2]EA Bc |
[V:3]A,2 z2 |
[V:4]A,/A,/A,/A,/ A,/A,/A,/A,/ |
[V:1]f/A/=f/A/ e/A/d/A/ |
[V:2]dD E=F |
[V:3]z4 |
[V:4]A,/A,/A,/A,/ A,/A,/A,/A,/ |
[V:1]c/A/A/A/ A/A/A/A/ |
[V:2]EA, B,C |
[V:3]z4 |
[V:4]A,A, ^G,=G, |
[V:1]A/A/A/A/ A/A/A/A/ |
[V:2]DD E=F |
[V:3]z4 |
[V:4]F,=F, E,D, |
[V:1]A/A/_B/A/ A/A/^G/A/ |
[V:2]E3 =F |
[V:3]C3 D |
[V:4]A,,4- |
[V:1]A/A/_B/A/ A/A/^G/A/ |
[V:2]E3 =F |
[V:3]C3 D |
[V:4]A,,4- |
[V:1]A/A/_B/A/ A/A/^G/A/ |
[V:2]E3 =F |
[V:3]C3 D |
[V:4]A,,4- |
[V:1]A/A/^G/A/ A/A/G/A/ |
[V:2]E=F EF |
[V:3]CD CD |
[V:4]A,,4- |
[V:1]A2 zA/A/ |
[V:2]E2 z2 |
[V:3]C2 z2 |
[V:4]A,,2 z2 |
[V:1]A/A/A/A/ A/A/A/A/ |
[V:2]z4 |
[V:3]z3 A, |
[V:4]z3 D, |
[V:1]G2 FE |
[V:2]z3 C |
[V:3]A,A, A,G, |
[V:4]D,D, D,E, |
[V:1]Dd B^G |
[V:2]DF DB, |
[V:3]F,2 zD |
[V:4]F,B,, D,E, |
[V:1]AA, ze/e/ |
[V:2]C2 z2 |
[V:3]C2 z2 |
[V:4]A,,2 z2 |
[V:1]e/e/e/e/ e/e/e/e/ |
[V:2]z3 G |
[V:3]z3 E |
[V:4]z3 A, |
[V:1]d2 cB |
[V:2]GG GG |
[V:3]EE EE |
[V:4]A,A, A,B, |
[V:1]Aa gc |
[V:2]G3 G |
[V:3]E3 E |
[V:4]C3 A, |
[V:1]dD zD/D/ |
[V:2]F2 z2 |
[V:3]D2 z2 |
[V:4]D2 z2 |
[V:1]D/D/D/D/ D/D/D/D/ |
[V:2]z4 |
[V:3]z4 |
[V:4]z4 |
[V:1]G,B AD/D/ |
[V:2]zG Fz |
[V:3]zD Dz |
[V:4]zG,,/B,,/ D,z |
[V:1]D/D/D/D/ D/D/D/D/ |
[V:2]z4 |
[V:3]z4 |
[V:4]z4 |
[V:1]A,G FD/D/ |
[V:2]zE DD |
[V:3]zA, D,z |
[V:4]zC, D,z |
[V:1]D/D/D/D/ D/D/D/D/ |
[V:2]C=C B,^A, |
[V:3]zF, G,F, |
[V:4]zD,, E,,F,, |
[V:1]G,B AD/D/ |
[V:2]B,C Dz |
[V:3]G,E, F,D |
[V:4]G,,2 F,,D, |
[V:1]D/D/D/D/ D/D/D/D/ |
[V:2]zA, G,D |
[V:3]EF G^G |
[V:4]C,=C, B,,_B,, |
[V:1]A,G FD/C/ |
[V:2]CE Dz |
[V:3]AA, Dz |
[V:4]A,,C, D,z |
[V:1]D/A,/F/E/ F/D/A/G/ |
[V:2]Fz Fz |
[V:3]A,z A,z |
[V:4]D,z D,z |
[V:1]A/F/d/c/ d/A/f/e/ |
[V:2]Fz Fz |
[V:3]A,z A,z |
[V:4]D,z D,z |
[V:1]f/d/a/f/ d'/a/f/d/ |
[V:2]F2 zF |
[V:3]A,2 zD |
[V:4]D,2 zD,,/F,,/ |
[V:1]A/a/c'/a/ d'/a/f/d/ |
[V:2]Eg fF |
[V:3]Ce dD |
[V:4]A,,2 z2 |
[V:1]A/a/c'/a/ d'/a/f/d/ |
[V:2]Eg fF |
[V:3]Ce dD |
[V:4]A,,2 z2 |
[V:1]A2 zc/d/ |
[V:2]Ez2 A |
[V:3]Cz2 F |
[V:4]A,,2 z2 |
[V:1]c/d/e/d/ e/d/c/d/ |
[V:2]A4- |
[V:3]GF FF |
[V:4]z4 |
[V:1]c/d/e/d/ e/d/c/d/ |
[V:2]A4- |
[V:3]GF FF |
[V:4]z4 |
[V:1]c/d/e/d/ e/d/g/f/ |
[V:2]A4 |
[V:3]GF FF |
[V:4]z4 |
[V:1]e/d/b/a/ g/f/d'/c'/ |
[V:2]Az Az |
[V:3]Fz Fz |
[V:4]D,z D,z |
[V:1]b/a/f' f'f' |
[V:2]AA AA |
[V:3]FF FF |
[V:4]D,/D,/D,/D,/ D,/D,/D,/D,/ |
[V:1]f'2 zF/D/ |
[V:2]A2 z2 |
[V:3]F2 zD, |
[V:4]D,2 z2 |
[V:1]G/D/A/D/ B/D/c/D/ |
[V:2]z4 |
[V:3]E,F, G,E, |
[V:4]z4 |
[V:1]de fg |
[V:2]zc/A/ d/A/e/A/ |
[V:3]F,2 z2 |
[V:4]z4 |
[V:1]ab c'd' |
[V:2]fD E=F |
[V:3]z4 |
[V:4]zG, G,^G, |
[V:1]A4 |
[V:2]FA/F/ A/F/A/F/ |
[V:3]zF/D/ F/D/F/D/ |
[V:4]A,A, A,A, |
[V:1]e4 |
[V:2]G2 C2 |
[V:3]C2 G,2 |
[V:4]A,,A,, A,,A,, |
[V:1]d2 zf |
[V:2]D2 z2 |
[V:3]F,2 z2 |
[V:4]D,D D,z |
[V:1]f2 e/d/c/B/ |
[V:2]zD DD |
[V:3]zB, B,B, |
[V:4]zB, B,B, |
[V:1]^A2 zf |
[V:2]zE EE |
[V:3]zC CC |
[V:4]zF, F,F, |
[V:1]f2 e/d/c/B/ |
[V:2]zD DD |
[V:3]zB, B,B, |
[V:4]zB,, B,,B,, |
[V:1]^A2 zf |
[V:2]zE EE |
[V:3]zC CC |
[V:4]zF,, F,,F,, |
[V:1]f2 e/d/c/B/ |
[V:2]zD DD |
[V:3]zB, B,F, |
[V:4]zB,, B,,B,, |
[V:1]A3/B//A// GF |
[V:2]E3 D |
[V:3]A,4 |
[V:4]C,3 D, |
[V:1]E3/F//G// FE |
[V:2]B,>E DC |
[V:3]B,2 A,G, |
[V:4]G,,G,, A,,A,, |
[V:1]D2 z2 |
[V:2]D2 zf |
[V:3]F,2 z2 |
[V:4]D,A,, D,,z |
[V:1]z4 |
[V:2]f2 e/d/c/B/ |
[V:3]zD DD |
[V:4]zB, B,B, |
[V:1]zg/f/ fz |
[V:2]^A2 zf |
[V:3]zE EE |
[V:4]zC CC |
[V:1]z4 |
[V:2]f2 e/d/c/B/ |
[V:3]zD DD |
[V:4]zB, B,B, |
[V:1]zg/f/ ff' |
[V:2]^A2 z2 |
[V:3]zE EE |
[V:4]zC CC |
[V:1]f'2 e'/d'/c'/b/ |
[V:2]zd dd |
[V:3]zF FF |
[V:4]zB,, B,,B,, |
[V:1]a3/b//a// gf |
[V:2][e3A3] d |
[V:3]GA AA |
[V:4]C,3 D, |
[V:1]e4- |
[V:2]d4- |
[V:3]B4 |
[V:4]G,G, G,G, |
[V:1]e4- |
[V:2]d4 |
[V:3]_B4- |
[V:4]G,G, G,G, |
[V:1]e4 |
[V:2]=c4- |
[V:3]B4- |
[V:4]G,G, G,G, |
[V:1]e3 d/e/ |
[V:2]c4- |
[V:3]B4 |
[V:4]G,G, G,G, |
[V:1]=f4- |
[V:2]c4 |
[V:3]A4 |
[V:4]=F,F, F,F, |
[V:1]f4 |
[V:2]B4 |
[V:3]^G4 |
[V:4]D,D, D,D, |
[V:1][e2A2] [g2-A2] |
[V:2]A2 e2- |
[V:3]A4- |
[V:4]C,C CC |
[V:1][g2A2] f2 |
[V:2]e2 d2 |
[V:3]A4 |
[V:4]DD DD |
[V:1]e^a/b/ a/b/=a/g/ |
[V:2]B2 z2 |
[V:3]B2 z2 |
[V:4]G,2 z2 |
[V:1]f/e/^d/e/ d/e/g/e/ |
[V:2]B2 z2 |
[V:3]G2 z2 |
[V:4]G,2 z2 |
[V:1]d3 e |
[V:2]F3 G |
[V:3]D3 C |
[V:4]A,A, A,A, |
[V:1]dd' c'=c' |
[V:2]FF GA |
[V:3]D/D/D/D/ D/D/D/D/ |
[V:4]D,D, E,F, |
[V:1]b_b a^g |
[V:2]G2 z2 |
[V:3]D/D/D/D/ D/D/D/D/ |
[V:4]G,G, A,B, |
[V:1]ag/e/ f/d/e/c/ |
[V:2]z3 A, |
[V:3]D2 zG |
[V:4]A,B, A,A, |
[V:1]dd ef |
[V:2]D/D/D/D/ D/D/D/D/ |
[V:3]FD C=C |
[V:4]D,2 z2 |
[V:1]g^g ab |
[V:2]D/D/D/D/ D/D/D/D/ |
[V:3]B,_B, A,^G, |
[V:4]z4 |
[V:1]ag/e/ f/d/e/c/ |
[V:2]D2 zC/E/ |
[V:3]A,2 zG, |
[V:4]zB,, A,,A,, |
[V:1]d2 zA/A/ |
[V:2]D2 z2 |
[V:3]F,2 z2 |
[V:4]D,2 zA,, |
[V:1]A/A/A/A/ A/A/A/A/ |
[V:2]z4 |
[V:3]z4 |
[V:4]_B,,=B,, =C,^C, |
[V:1]G2 FE |
[V:2]z4 |
[V:3]z4 |
[V:4]D,3 E, |
[V:1]Dd B^G |
[V:2]z4 |
[V:3]z4 |
[V:4]F,B,, D,E, |
[V:1]AA, ze/e/ |
[V:2]z4 |
[V:3]z3 A, |
[V:4]A,,2 z2 |
[V:1]e/e/e/e/ e/e/e/e/ |
[V:2]z4 |
[V:3]_B,A, DC |
[V:4]z4 |
[V:1]d2 cB |
[V:2]z4 |
[V:3]G4- |
[V:4]z4 |
[V:1]Aa gc |
[V:2]z4 |
[V:3]GF EA |
[V:4]z4 |
[V:1]dD zD/D/ |
[V:2]z4 |
[V:3]D2 z2 |
[V:4]z4 |
[V:1]D/D/D/D/ D/D/D/D/ |
[V:2]z4 |
[V:3]z4 |
[V:4]z4 |
[V:1]G,B AD/D/ |
[V:2]zG Fz |
[V:3]zD Dz |
[V:4]zG,,/B,,/ D,z |
[V:1]D/D/D/D/ D/D/D/D/ |
[V:2]z4 |
[V:3]z4 |
[V:4]z4 |
[V:1]A,G Fz |
[V:2]zE Dz |
[V:3]zA, D,z |
[V:4]zC,/D,/ D,D,/D,/ |
[V:1]z4 |
[V:2]z4 |
[V:3]z4 |
[V:4]D,/D,/D,/D,/ D,/D,/D,/D,/ |
[V:1]zb/c'/ d'z |
[V:2]zd Dz |
[V:3]zB Az |
[V:4]G,,G, F,D,/D,/ |
[V:1]z4 |
[V:2]z4 |
[V:3]z4 |
[V:4]D,/D,/D,/D,/ D,/D,/D,/D,/ |
[V:1]zg/f//g// fz |
[V:2]ze dz |
[V:3]zA A,z |
[V:4]A,,C, D,z |
[V:1]zg/f//g// fz |
[V:2]ze dz |
[V:3]zA Az |
[V:4]zC Dz |
[V:1]zg/f//g// fg/f//g// |
[V:2]ze de |
[V:3]zA AA |
[V:4]zC DC |
[V:1]fg fg/f//g// |
[V:2]de de |
[V:3]AA AA |
[V:4]DC DC |
[V:1]fz [B2-b2] |
[V:2]dz [D2-d2] |
[V:3]Az [G2-G,2] |
[V:4]Dz G,2- |
[V:1][B2b2] a/g/f/e/ |
[V:2][D2d2] z2 |
[V:3][G2G,2] z2 |
[V:4]G,2 z2 |
[V:1]d2 z2 |
[V:2]F2 zA/A/ |
[V:3]A,2 z2 |
[V:4]A,2 zA, |
[V:1]z4 |
[V:2]A/A/A/A/ A/A/A/A/ |
[V:3]z4 |
[V:4]_B,=B, =C^C |
[V:1]z3 a/a/ |
[V:2]G2 Fz |
[V:3]z3 A |
[V:4]D2 z2 |
[V:1]a/a/a/a/ a/a/a/a/ |
[V:2]z4 |
[V:3]_B=B =c^c |
[V:4]z4 |
[V:1]g2 fA/A/ |
[V:2]z4 |
[V:3]d2 z2 |
[V:4]z3 A,, |
[V:1]A/A/A/A/ A/A/A/A/ |
[V:2]z3 E |
[V:3]z3 A, |
[V:4]_B,,=B,, =C,^C, |
[V:1]G4- |
[V:2][E4-C4] |
[V:3]A,3 A, |
[V:4]D,4- |
[V:1]G4 |
[V:2][E4C4] |
[V:3]_B,=B, =C^C |
[V:4]D,4 |
[V:1]F2 zF/F/ |
[V:2]D2 zD/D/ |
[V:3]D2 zA,/A,/ |
[V:4]D,,2 zA,, |
[V:1]F/F/F/F/ F/F/F/F/ |
[V:2]D/D/D/D/ D/D/D/D/ |
[V:3]A,/A,/A,/A,/ A,/A,/A,/A,/ |
[V:4]F,,=F,, E,,_E,, |
[V:1]F2 zF/F/ |
[V:2]D2 zD/D/ |
[V:3]A,z2 A,/A,/ |
[V:4]D,,2 zD,,/C,,/ |
[V:1]F/F/F/F/ F/F/F/F/ |
[V:2]D/D/D/D/ D/D/D/D/ |
[V:3]A,/A,/A,/A,/ A,/A,/A,/A,/ |
[V:4]D,,/C,,/D,,/C,,/ D,,/C,,/D,,/C,,/ |
[V:1]F2 z2 |]
[V:2]D2 z2 |]
[V:3]A,2 z2 |]
[V:4]D,,2 z2 |]

